X: 13
T: Am Segula
O: Israel
C: Mordechai Zeira 1960
F: http://www.youtube.com/watch?v=CToH87R8VQU
N: record: Blue-Star 84 FOR EDUCATIONAL USE YE-10008
M: 2/4
L: 1/16
K: Em
%%MIDI program 68 Oboe
%%MIDI bassprog 116 Taiko Drum
%%MIDI bassvol 60
%%MIDI gchord fzfz
GFE A2F3|G2E2- E4|\
GFE A2F3|G2E2- E4|\
GFE A2F3|D2E2 D2G2|F2E2 z4|
|:"D"D2F2 "Em"E2G2|"D"F2A2 "Em"GFEz|\
E2E2 D2E2-|E4 z4:|
|:"D"D2F2 "Em"E2G2|"D"F2A2 "Em"GFEz|"D"F2A2 "Em"GFEz|\
E2E2 D2E2-|E4 z4::
"Em"E4 "D"A4|"G"B4 "Am"c4|"G"B4 A2B2- B2A2|"Am"c2B2 A4|\
G2A2- A2B2|c2B2 G4|"Am"A4- A2B2|cBA2- A4:|



